svg/u0031.svg

<svg viewBox="0 0 128 128" xmlns="http://www.w3.org/2000/svg">
  <linearGradient id="SVGID_1_" gradientTransform="matrix(1 0 0 -1 0 128)" gradientUnits="userSpaceOnUse" x1="59.335" x2="59.335" y1="100.333" y2="25.95">
    <stop offset="0" stop-color="#757575"/>
    <stop offset="0.5148" stop-color="#504F4F"/>
  </linearGradient>
  <path d="M73.57,102.07H63.7c-0.76,0-1.37-0.61-1.37-1.37V43.03c0-0.94-0.92-1.6-1.81-1.3l-14.98,5.11 c-0.89,0.3-1.81-0.36-1.81-1.3v-7.76c0-0.57,0.36-1.09,0.9-1.29L73.1,26.02c0.15-0.06,0.31-0.08,0.47-0.08 c0.76,0,1.37,0.61,1.37,1.37v73.39C74.94,101.45,74.33,102.07,73.57,102.07z" fill="url(#SVGID_1_)"/>
</svg>

<svg viewBox="0 0 128 128" xmlns="http://www.w3.org/2000/svg">
  <defs>
    <linearGradient id="SVGID_1_" gradientTransform="matrix(1 0 0 -1 0 0)" gradientUnits="userSpaceOnUse" x1="59.335" x2="59.335" y1="-27.667" y2="-102.05">
      <stop offset="0" stop-color="#757575"/>
      <stop offset="0.5148" stop-color="#504F4F"/>
    </linearGradient>
  </defs>
  <path d="M73.57,102.07 L63.7,102.07 C62.94,102.07 62.33,101.46 62.33,100.7 L62.33,43.03 C62.33,42.09 61.41,41.43 60.52,41.73 L45.54,46.84 C44.65,47.14 43.73,46.48 43.73,45.54 L43.73,37.78 C43.73,37.21 44.09,36.69 44.63,36.49 L73.1,26.02 C73.25,25.96 73.41,25.94 73.57,25.94 C74.33,25.94 74.94,26.55 74.94,27.31 L74.94,100.7 C74.94,101.45 74.33,102.07 73.57,102.07 Z" fill="url(#SVGID_1_)"/>
</svg>
